assets/icons/standard/poll.svg

<?xml version="1.0"?><svg xmlns="http://www.w3.org/2000/svg" width="100" height="100" viewBox="0 0 100 100"><path fill="#fff" d="m76 20h-52c-2.2 0-4 1.8-4 4v8c0 2.2 1.8 4 4 4h52c2.2 0 4-1.8 4-4v-8c0-2.2-1.8-4-4-4z m-25 12v-8h25v8h-25z m25 10h-52c-2.2 0-4 1.8-4 4v8c0 2.2 1.8 4 4 4h52c2.2 0 4-1.8 4-4v-8c0-2.2-1.8-4-4-4z m-34 12v-8h34v8h-34z m34 10h-52c-2.2 0-4 1.8-4 4v8c0 2.2 1.8 4 4 4h52c2.2 0 4-1.8 4-4v-8c0-2.2-1.8-4-4-4z m-16 12v-8h16v8h-16z"></path></svg>

<svg xmlns="http://www.w3.org/2000/svg" x="0px" y="0px" width="100" height="100"
	 viewBox="0 0 100 100" style="enable-background:new 0 0 100 100;" xml:space="preserve">

<g>
	<g>
		<path fill="#FFFFFF" d="M76,20H24c-2.2,0-4,1.8-4,4v8c0,2.2,1.8,4,4,4h52c2.2,0,4-1.8,4-4v-8C80,21.8,78.2,20,76,20z M51,32v-8h25
			l0,8H51z"/>
	</g>
	<g>
		<path fill="#FFFFFF" d="M76,42H24c-2.2,0-4,1.8-4,4v8c0,2.2,1.8,4,4,4h52c2.2,0,4-1.8,4-4v-8C80,43.8,78.2,42,76,42z M42,54v-8h34
			l0,8H42z"/>
	</g>
	<g>
		<path fill="#FFFFFF" d="M76,64H24c-2.2,0-4,1.8-4,4v8c0,2.2,1.8,4,4,4h52c2.2,0,4-1.8,4-4v-8C80,65.8,78.2,64,76,64z M60,76v-8h16
			l0,8H60z"/>
	</g>
</g>
</svg>
